Sweet-Rainbow/icons/conky-manager.svg

<?xml version="1.0" encoding="UTF-8" standalone="no"?>
<!-- Generator: Gravit.io -->

<svg
   xmlns:dc="http://purl.org/dc/elements/1.1/"
   xmlns:cc="http://creativecommons.org/ns#"
   xmlns:rdf="http://www.w3.org/1999/02/22-rdf-syntax-ns#"
   xmlns:svg="http://www.w3.org/2000/svg"
   xmlns="http://www.w3.org/2000/svg"
   xmlns:sodipodi="http://sodipodi.sourceforge.net/DTD/sodipodi-0.dtd"
   xmlns:inkscape="http://www.inkscape.org/namespaces/inkscape"
   style="isolation:isolate"
   viewBox="0 0 36 36"
   width="48"
   height="48"
   version="1.1"
   id="svg11"
   sodipodi:docname="conky-manager.svg"
   inkscape:version="0.92.4 (5da689c313, 2019-01-14)">
  <metadata
     id="metadata17">
    <rdf:RDF>
      <cc:Work
         rdf:about="">
        <dc:format>image/svg+xml</dc:format>
        <dc:type
           rdf:resource="http://purl.org/dc/dcmitype/StillImage" />
        <dc:title></dc:title>
      </cc:Work>
    </rdf:RDF>
  </metadata>
  <defs
     id="defs15" />
  <sodipodi:namedview
     pagecolor="#ffffff"
     bordercolor="#666666"
     borderopacity="1"
     objecttolerance="10"
     gridtolerance="10"
     guidetolerance="10"
     inkscape:pageopacity="0"
     inkscape:pageshadow="2"
     inkscape:window-width="640"
     inkscape:window-height="480"
     id="namedview13"
     showgrid="false"
     inkscape:zoom="29.365243"
     inkscape:cx="25.325443"
     inkscape:cy="32"
     inkscape:current-layer="svg11"
     units="px" />
  <linearGradient
     id="_lgradient_10"
     x1="-0.014458464"
     y1="0.009839246"
     x2="1.0164566"
     y2="1.072293"
     gradientTransform="matrix(45,0,0,26,2,14)"
     gradientUnits="userSpaceOnUse">
    <stop
       offset="0%"
       stop-opacity="1"
       style="stop-color:rgb(249,212,35)"
       id="stop2" />
    <stop
       offset="51.56237565086822%"
       stop-opacity="1"
       style="stop-color:rgb(255,78,80)"
       id="stop4" />
    <stop
       offset="99.1304347826087%"
       stop-opacity="1"
       style="stop-color:rgb(138,35,135)"
       id="stop6" />
  </linearGradient>
  <g
     id="g825"
     transform="matrix(0.8,0,0,0.8,-1.6,-3.6)">
    <path
       id="path9"
       d="m 8,36 h 2 v 4 H 8 5 C 3.344,40 2,38.656 2,37 V 17 c 0,-1.656 1.344,-3 3,-3 h 3 2 v 4 H 8 7 c -0.552,0 -1,0.448 -1,1 v 17 z m 8,-22 v 0 c 1.104,0 2,0.896 2,2 v 0 c 0,1.104 -0.896,2 -2,2 v 0 h -2 -2 v -4 h 2 z m 0,22 v 0 c 1.104,0 2,0.896 2,2 v 0 c 0,1.104 -0.896,2 -2,2 v 0 h -2 -2 v -4 h 2 z m 5,-9 v 0 c 0,-1.104 0.896,-2 2,-2 v 0 c 1.104,0 2,0.896 2,2 v 0 11 0 c 0,1.104 -0.896,2 -2,2 v 0 c -1.104,0 -2,-0.896 -2,-2 v 0 z m 22,1 v 0 c 0,-1.104 0.896,-2 2,-2 v 0 c 1.104,0 2,0.896 2,2 v 0 10 0 c 0,1.104 -0.896,2 -2,2 v 0 c -1.104,0 -2,-0.896 -2,-2 v 0 z M 25,20 v 0 c 0,1.104 -0.896,2 -2,2 v 0 c -1.104,0 -2,-0.896 -2,-2 v 0 -4 c 0,-1.104 0.896,-2 2,-2 h 4.15 c 0.552,0 1.226,0.387 1.504,0.864 L 34,24.03 39.346,14.864 C 39.624,14.387 40.298,14 40.85,14 H 45 c 1.104,0 2,0.896 2,2 v 4 0 c 0,1.104 -0.896,2 -2,2 v 0 c -1.104,0 -2,-0.896 -2,-2 v 0 -2 h -0.85 l -6.638,11.379 c -0.835,1.43 -2.189,1.43 -3.024,0 L 25.85,18 H 25 Z"
       style="fill:url(#_lgradient_10);fill-rule:evenodd"
       inkscape:connector-curvature="0" />
  </g>
</svg>

<?xml version="1.0" encoding="UTF-8" standalone="no"?><!-- Generator: Gravit.io --><svg xmlns="http://www.w3.org/2000/svg" xmlns:xlink="http://www.w3.org/1999/xlink" style="isolation:isolate" viewBox="0 0 48 48" width="48pt" height="48pt"><linearGradient id="_lgradient_10" x1="-0.014458464773922156" y1="0.009839246119734024" x2="1.0164565923220248" y2="1.0722930524759795" gradientTransform="matrix(45,0,0,26,2,14)" gradientUnits="userSpaceOnUse"><stop offset="0%" stop-opacity="1" style="stop-color:rgb(249,212,35)"/><stop offset="51.56237565086822%" stop-opacity="1" style="stop-color:rgb(255,78,80)"/><stop offset="99.1304347826087%" stop-opacity="1" style="stop-color:rgb(138,35,135)"/></linearGradient><path d=" M 8 36 L 10 36 L 10 40 L 8 40 L 5 40 C 3.344 40 2 38.656 2 37 L 2 17 C 2 15.344 3.344 14 5 14 L 8 14 L 10 14 L 10 18 L 8 18 L 7 18 C 6.448 18 6 18.448 6 19 L 6 36 L 8 36 L 8 36 L 8 36 L 8 36 L 8 36 Z  M 16 14 L 16 14 C 17.104 14 18 14.896 18 16 L 18 16 C 18 17.104 17.104 18 16 18 L 16 18 L 14 18 L 12 18 L 12 14 L 14 14 L 16 14 L 16 14 L 16 14 L 16 14 L 16 14 Z  M 16 36 L 16 36 C 17.104 36 18 36.896 18 38 L 18 38 C 18 39.104 17.104 40 16 40 L 16 40 L 14 40 L 12 40 L 12 36 L 14 36 L 16 36 L 16 36 L 16 36 L 16 36 Z  M 21 27 L 21 27 C 21 25.896 21.896 25 23 25 L 23 25 C 24.104 25 25 25.896 25 27 L 25 27 L 25 38 L 25 38 C 25 39.104 24.104 40 23 40 L 23 40 C 21.896 40 21 39.104 21 38 L 21 38 L 21 27 L 21 27 L 21 27 Z  M 43 28 L 43 28 C 43 26.896 43.896 26 45 26 L 45 26 C 46.104 26 47 26.896 47 28 L 47 28 L 47 38 L 47 38 C 47 39.104 46.104 40 45 40 L 45 40 C 43.896 40 43 39.104 43 38 L 43 38 L 43 28 L 43 28 Z  M 25 20 L 25 20 C 25 21.104 24.104 22 23 22 L 23 22 C 21.896 22 21 21.104 21 20 L 21 20 L 21 16 C 21 14.896 21.896 14 23 14 L 27.15 14 C 27.702 14 28.376 14.387 28.654 14.864 L 34 24.03 L 39.346 14.864 C 39.624 14.387 40.298 14 40.85 14 L 45 14 C 46.104 14 47 14.896 47 16 L 47 20 L 47 20 C 47 21.104 46.104 22 45 22 L 45 22 C 43.896 22 43 21.104 43 20 L 43 20 L 43 18 L 42.15 18 L 35.512 29.379 C 34.677 30.809 33.323 30.809 32.488 29.379 L 25.85 18 L 25 18 L 25 20 Z " fill-rule="evenodd" fill="url(#_lgradient_10)"/></svg>
